Catalina-dark/actions/22/media-random-tracks-amarok.svg

<svg xmlns="http://www.w3.org/2000/svg" viewBox="0 0 22 22">
  <defs id="defs3051">
    <style type="text/css" id="current-color-scheme">
      .ColorScheme-Text {
        color:#f2f2f2;
      }
      </style>
  </defs>
 <path 
    style="fill:currentColor;fill-opacity:1;stroke:none" 
    d="M 4.5 3 C 3.6715787 3 3.0000083 3.6715704 3 4.5 C 3.0000083 5.3284296 3.6715787 6 4.5 6 C 5.3284213 6 5.9999917 5.3284296 6 4.5 C 5.9999917 3.6715704 5.3284213 3 4.5 3 z M 7 4 L 7 5 L 8 5 L 8 4 L 7 4 z M 9 4 L 9 5 L 19 5 L 19 4 L 9 4 z M 9 6 L 9 7 L 12 7 L 12 6 L 9 6 z M 4.5 9 C 3.6715732 8.9999988 3 9.6715721 3 10.5 C 3 11.328428 3.6715732 12.000001 4.5 12 C 5.3284268 12.000001 6 11.328428 6 10.5 C 6 9.6715721 5.3284268 8.9999988 4.5 9 z M 7 10 L 7 11 L 8 11 L 8 10 L 7 10 z M 17 11 L 17 12 L 16 12 L 15.976562 12 C 14.327553 12 13 13.327553 13 14.976562 L 13 15 C 13 16.108 12.108 17 11 17 L 8 17 L 8 18 L 11 18 L 11.023438 18 C 12.672447 18 14 16.672447 14 15.023438 L 14 15 C 14 13.892 14.892 13 16 13 L 17 13 L 17 14 L 19 12.5 L 17 11 z M 8 12 L 8 13 L 11 13 C 11.3989 13 11.766765 13.118679 12.078125 13.318359 C 12.153825 12.981499 12.287997 12.669139 12.466797 12.386719 C 12.037917 12.147809 11.551108 12 11.023438 12 L 11 12 L 8 12 z M 4.5 15 C 3.6715732 14.999999 3 15.671572 3 16.5 C 3 17.328428 3.6715732 18.000001 4.5 18 C 5.3284268 18.000001 6 17.328428 6 16.5 C 6 15.671572 5.3284268 14.999999 4.5 15 z M 17 16 L 17 17 L 16 17 C 15.6011 17 15.233245 16.881321 14.921875 16.681641 C 14.846175 17.018501 14.712003 17.330861 14.533203 17.613281 C 14.962083 17.852191 15.448892 18 15.976562 18 L 16 18 L 17 18 L 17 19 L 19 17.5 L 17 16 z "
    class="ColorScheme-Text"
    />  
</svg>

<svg viewBox="0 0 22 22" xmlns="http://www.w3.org/2000/svg">
<defs>
<style id="current-color-scheme" type="text/css">.ColorScheme-Text {
        color:#f2f2f2;
      }</style>
</defs>
<path class="ColorScheme-Text" d="m4.5 3c-0.82842 0-1.5 0.67157-1.5 1.5 8.3e-6 0.82843 0.67158 1.5 1.5 1.5s1.5-0.67157 1.5-1.5c-8.3e-6 -0.82843-0.67158-1.5-1.5-1.5zm2.5 1v1h1v-1h-1zm2 0v1h10v-1h-10zm0 2v1h3v-1h-3zm-4.5 3c-0.82843-1.2e-6 -1.5 0.67157-1.5 1.5s0.67157 1.5 1.5 1.5c0.82843 1e-6 1.5-0.67157 1.5-1.5s-0.67157-1.5-1.5-1.5zm2.5 1v1h1v-1h-1zm10 1v1h-1.0234c-1.649 0-2.9766 1.3276-2.9766 2.9766v0.023438c0 1.108-0.892 2-2 2h-3v1h3.0234c1.649 0 2.9766-1.3276 2.9766-2.9766v-0.023438c0-1.108 0.892-2 2-2h1v1l2-1.5-2-1.5zm-9 1v1h3c0.3989 0 0.76676 0.11868 1.0781 0.31836 0.0757-0.33686 0.20987-0.64922 0.38867-0.93164-0.42888-0.23891-0.91569-0.38672-1.4434-0.38672h-3.0234zm-3.5 3c-0.82843-1e-6 -1.5 0.67157-1.5 1.5s0.67157 1.5 1.5 1.5c0.82843 1e-6 1.5-0.67157 1.5-1.5s-0.67157-1.5-1.5-1.5zm12.5 1v1h-1c-0.3989 0-0.76676-0.11868-1.0781-0.31836-0.0757 0.33686-0.20987 0.64922-0.38867 0.93164 0.42888 0.23891 0.91569 0.38672 1.4434 0.38672h1.0234v1l2-1.5-2-1.5z" fill="currentColor"/>
</svg>
